app/images/icon/icon-svg/fb.svg

<svg width="40" height="40" viewBox="0 0 40 40" fill="none" xmlns="http://www.w3.org/2000/svg">
<path fill-rule="evenodd" clip-rule="evenodd" d="M0 19.975C0 8.94382 8.94382 0 19.975 0C31.0062 0 39.9501 8.94136 39.9501 19.975C39.9501 31.0062 31.0062 39.9501 19.975 39.9501C8.94382 39.9501 0 31.0062 0 19.975ZM21.8651 19.9749L25.1385 19.9725L25.5754 15.8427H21.8601L21.8651 13.7753C21.8651 12.6991 21.94 12.1224 23.4856 12.1224H25.553V7.99005H22.2471C18.2796 7.99005 17.3657 10.04 17.3657 13.4107L17.3707 15.8427L14.3745 15.8452V19.975H17.3707V31.9599H21.8626L21.8651 19.9749Z" fill="#C3B9B5"/>
</svg>

<svg width="40" height="40" fill="none" xmlns="http://www.w3.org/2000/svg"><path fill-rule="evenodd" clip-rule="evenodd" d="M0 19.975C0 8.944 8.944 0 19.975 0S39.95 8.941 39.95 19.975c0 11.031-8.944 19.975-19.975 19.975S0 31.006 0 19.975zm21.865 0l3.274-.003.436-4.13H21.86l.005-2.067c0-1.076.075-1.653 1.62-1.653h2.068V7.99h-3.306c-3.967 0-4.881 2.05-4.881 5.42l.005 2.433-2.996.002v4.13h2.996V31.96h4.492l.002-11.985z" fill="#C3B9B5"/></svg>
